!!!COM: Palestrina, Giovanni Perluigi da
!!!OPR: Missa Dies sanctificatus
!!!OMD: Credo
!!!OTL: Crucifixus
**kern	**kern	**kern	**kern
*Icalto	*Icalto	*Icant	*Icant
!Altus 2	!Altus 1	!Cantus 2	!Cantus 1
*clefG2	*clefG2	*clefG2	*clefG2
*k[]	*k[]	*k[]	*k[]
*G:mix	*G:mix	*G:mix	*G:mix
*M4/2	*M4/2	*M4/2	*M4/2
=72	=72	=72	=72
1r	0r	0r	0dd
1d	.	.	.
=73	=73	=73	=73
1e	0r	0r	1b
1f#	.	.	1a
=74	=74	=74	=74
1g	0r	0r	2g
.	.	.	2b
2e	.	.	2cc
2f#	.	.	4dd
.	.	.	4cc
=75	=75	=75	=75
4g	0r	0r	4b
4f#	.	.	4a
4e	.	.	2g
4d	.	.	.
4c	.	.	1cc
4B	.	.	.
2A	.	.	.
=76	=76	=76	=76
2G	1r	0dd	2.b
1g	.	.	.
.	.	.	8a
.	.	.	8g
.	1d	.	1a
2f#	.	.	.
=77	=77	=77	=77
1g	1e	1b	4g
.	.	.	4a
.	.	.	4b
.	.	.	4cc
1d	1f#	1a	[1dd
=78	=78	=78	=78
0r	1g	2g	1dd]
.	.	2b	.
.	2e	2cc	1r
.	2f#	4dd	.
.	.	4cc	.
=79	=79	=79	=79
1.e	4g	4b	1.g
.	4f#	4a	.
.	4e	2g	.
.	4d	.	.
.	4c	1cc	.
.	4B	.	.
2f#	2A	.	2a
=80	=80	=80	=80
2g	2G	2b	2b
2e	1g	4a	2cc
.	.	4g	.
1d	.	1a	1dd
.	2f#	.	.
=81	=81	=81	=81
2G	[0g	2dd	2b
2G	.	2dd	2b
2.c	.	2.cc	2.ee
4c	.	4cc	4ee
=82	=82	=82	=82
2c	1g]	2cc	2ee
2B	.	2dd	2dd
1A	2r	2.ee	2.cc
.	2e	.	.
.	.	4dd	4dd
=83	=83	=83	=83
1A	2.a	4cc	4ee
.	.	4b	8dd
.	.	.	8ee
.	.	1cc	2.ff
.	4a	.	.
1r	2a	.	.
.	.	.	4ee
.	2g	2b	[2ee
=84	=84	=84	=84
2r	1f	1a	2ee]
1a	.	.	2dd
.	1e	2b	1ee
2g#	.	[2ee	.
=85	=85	=85	=85
2a	0r	2ee]	1r
2f	.	2dd	.
2.e	.	2ee	2r
.	.	2cc	[2ee
4f	.	.	.
=86	=86	=86	=86
2g	2r	2b	2ee]
2f	1a	2a	2dd
1e	.	2b	2ee
.	2g#	[2ee	2b
=87	=87	=87	=87
2A	2a	2ee]	2cc
2d	2f	2dd	4a
.	.	.	4b
[1c	2.e	2ee	4cc
.	.	.	4dd
.	.	2cc	[2ee
.	4f	.	.
=88	=88	=88	=88
2c]	2g	4cc	2ee]
.	.	4b	.
2d	2f	4a	1dd
.	.	4g	.
1A	1e	2a	.
.	.	2a	2cc#
=89	=89	=89	=89
1d	2r	2a	2dd
.	2f#	2dd	2a
1r	2.g	2.dd	2.b
.	4g	4dd	4b
=90	=90	=90	=90
0r	2g	2dd	2b
.	2c	2cc	2ee
.	2g	2b	2dd
.	2e	2g	2ee
=91	=91	=91	=91
0r	4d	1a	1ff
.	4e	.	.
.	4f	.	.
.	4g	.	.
.	4a	2.cc	1ee
.	4b	.	.
.	[2cc	.	.
.	.	4dd	.
=92	=92	=92	=92
1r	2cc]	4ee	2a
.	.	4ff	.
.	2b	1gg	2dd
2r	1a	.	2ee
2d	.	2ff#	4dd
.	.	.	4cc
=93	=93	=93	=93
2e	1g	2gg	1b
1g	.	2dd	.
.	2r	2ee	2a
2f#	2d	4dd	2a
.	.	4cc	.
=94	=94	=94	=94
1g	2e	1b	4g
.	.	.	4a
.	1g	.	4b
.	.	.	4cc
1d	.	2a	2.dd
.	2f#	2a	.
.	.	.	4cc
=95	=95	=95	=95
2G	1g	4g	1b
.	.	4a	.
2.g	.	4b	.
.	.	4cc	.
.	2d	1dd	1a
8f#	.	.	.
8e	.	.	.
2f#	2d	.	.
=96	=96	=96	=96
1g	2.e	1b	2r
.	.	.	2g
.	4f#	.	.
1r	2g	1r	2b
.	2a	.	2cc
=97	=97	=97	=97
1r	2b	0r	2dd
.	2cc	.	2ee
1d	1a	.	1ff#
=98	=98	=98	=98
2.e	1g	2r	1gg
.	.	2g	.
4f#	.	.	.
2g	1r	2b	1r
2a	.	2cc	.
=99	=99	=99	=99
2b	1r	2dd	1r
2cc	.	2ee	.
1a	2r	1ff#	2r
.	2d	.	2dd
=100	=100	=100	=100
1g	2e	1gg	2cc
.	2g	.	2b
2r	2f	2r	2a
2g	2e	2gg	2cc
=101	=101	=101	=101
2a	2d	2ff	2dd
2cc	2c	2ee	2gg
2b	2g	2dd	2gg
2a	2a	2cc	2ff
=102	=102	=102	=102
2g	2e	2b	2ee
1a	2f	2a	2dd
.	1e	1b	[1ee
2g#	.	.	.
=103	=103	=103	=103
0a	2r	1cc	1ee]
.	2a	.	.
.	[1cc	1ee	2r
.	.	.	2a
=104	=104	=104	=104
0r	2cc]	2ee	2cc
.	2b	2dd	2dd
.	1a	1cc	2ee
.	.	.	2ee
=105	=105	=105	=105
0r	2g	2b	2ee
.	1a	1cc	2.ff
.	.	.	4ee
.	2e	2b	[2ee
=106	=106	=106	=106
2r	1f	1a	2ee]
2a	.	.	2dd
[1cc	2.c	2r	1ee
.	.	2ee	.
.	4d	.	.
=107	=107	=107	=107
2cc]	1e	1gg	2r
2b	.	.	2b
2a	1r	2ff	2cc
2a	.	[2ee	2cc
=108	=108	=108	=108
2g#	2r	4ee]	2b
.	.	4dd	.
2.a	2a	4cc	2ee
.	.	4b	.
.	2cc	2a	2ff
4g	.	.	.
2e	2b	2g	[2ee
=109	=109	=109	=109
1f	2a	2cc	2ee]
.	1a	4b	2dd
.	.	4a	.
1e	.	1b	[1ee
.	2g#	.	.
=110	=110	=110	=110
2r	1a	1cc	0ee]
1a	.	.	.
.	1e	1b	.
[2g	.	.	.
=111	=111	=111	=111
2g]	1d	1dd	1a
2f	.	.	.
[1g	2c	2ee	2cc
.	2B	2dd	2dd
=112	=112	=112	=112
1g]	1.c	1.cc	1.ee
1g	.	.	.
.	2G	2b	2dd
=113	=113	=113	=113
1g	1G	2.b	1dd
.	.	4a	.
2r	2r	1g	1b
[2e	[2g	.	.
=114	=114	=114	=114
2e]	2g]	0r	2cc
2f	2a	.	1dd
1g	1b	.	.
.	.	.	[2ee
=115	=115	=115	=115
1a	1cc	1r	2ee]
.	.	.	2ff
1g	1b	2r	2ee
.	.	2b	[2dd
=116	=116	=116	=116
2e	2g	1cc	4dd]
.	.	.	4cc
2f	2a	.	1cc
1d	1f	1dd	.
.	.	.	2b
=117	=117	=117	=117
1c	2g	0ee	1cc
.	1e	.	.
2g	.	.	2b
2a	2a	.	2cc
=118	=118	=118	=118
1b	1g	2r	1dd
.	.	2gg	.
2cc	1c	[1gg	1ee
2cc	.	.	.
=119	=119	=119	=119
2b	1d	2gg]	1dd
1a	.	2ff	.
.	2e	1ee	2b
[2g	2c	.	2cc
=120	=120	=120	=120
2g]	0d	0dd	0a
4e	.	.	.
4f#	.	.	.
1f#	.	.	.
=121	=121	=121	=121
0g	0G	0dd	0b
*-	*-	*-	*-
!!!CDT: 1525/^1526/-1594/2/2
!!!OCY: Italia
!!!AGN: Mass (Parody)
!!!AST: renaissance, vocal
!!!ASW: Motet 1563 (Palestrina)
!!!PWK: Masses, Book 6
!!!RNB: Cadence finals: D,A,C
!!!YOR: Le Opere Complete, v. 21, p. 1
!!!YOO: Rome, Italy: Fratelli Scalera
!!!END: 1992//
!!!EED: John Miller
!!!YEC: Copyright 2000, John Miller
!!!YEN: United States of America
!!!YEM: Rights to all derivative electronic formats reserved.
!!!YEM: Refer to licensing agreement for further details.
!!!YEM: This file must be accompanied by the licensing agreement.
!!!YEM: A copy of the licensing agreement may be found at http://www.music-cog.ohio-state.edu/HumdrumDatabases/Palestrina/license.txt
!!!EMD: converted to Humdrum by Bret Aarden
